X: 1
T: Gut Nacht Vals  (Dm/D)
R: waltz
S: printed MS from Steve Rauch
Z: 2008 John Chambers <jc:trillian.mit.edu>
O: Budowitz
D: Budowitz "Wedding Without a Bride" (in Gm/G)
M: 3/4
L: 1/8
K: Dm
A, \
| "Dm"D2 D2 (3FED | "A"E2 E2 FE | "Dm"F4 c2 | A2 ^G2 FE \
| "Dm"D2 D2 (3FED | "A"E2 E2 FE | "A"^G2 A2 G2 | A>^G A2 A,2 |
| "Dm"D2 D2 (3FED | "A"E2 E2 FE | "Dm"F4 c2 | A2 ^G2 FE \
| "Dm"F2 F2 ED | "A7"^C3 A,CE | "Dm"D3 dAF | D6 :| [K:=B]
K: D
|: CDE \
| "D"F3 DED | F3 DED | "A7"G3 EFE | G3 EFE \
| "A7"E2 F2 GA | B2 AG FE |1 "D"=F2 ^F2 F2 | F3 :|2 "D"D2 D2 D2 | D6 ||
|:"D"A,2 D2 E2 | F6 | F3 DEF | "A7"G3 F (3GFE \
| "D"D6- | D6 | A,2 D2 F2 | A2 F2 |
| "G"B3 AGF | "A7"E6 | "G"B,2 E2 F2 | G2 F2 E2 \
| "D"F2 A2 d2 | d6 | "A7"F2 G2 G2 | G3 F (3GFE \
| "D"D6- | D6 :|
